X: 10791
T: The LASS OF PEATIE'S MILL
T: The Lass of Patie's Mill
N: Spelled "Lass of Patie's Mill" in the index, and in most other collections
Q: "Andante"
%R: air, strathspey
B: "Edinburgh Repository of Music" v.1 p.79 #1
F: http://digital.nls.uk/special-collections-of-printed-music/pageturner.cfm?id=87776133
Z: 2015 John Chambers <jc:trillian.mit.edu>
M: C
L: 1/8
K: D
A>G |\
F2(E>D) (F>G)A2 | (d3e) f2zA |\
(Bc)(dA) (BAGF) | {F2}E4 z2A>G |\
F2(E>D) (F>G)A2 | (d3e/f/) A2zd |\
(B>cd)B (c>def) | d6 :|
|: f2 |\
(gf)(ed) c2BA | d3e f2zA |\
(B>cd)A (BAGF) | {F2}E4 z2fg |\
(a/g/f) (g/f/)e (fd)(Bg) | {f2}e4 z2(GF) |\
G2(AB) A2c2 | d6 :|

%%sep 2 1 500
%%sep 1 1 500

